X:17
T: Lan gong diao
N: C0019
O: China,Shaanxi, Shanbei
S: I, 65, 2)]
N: +++BEREITS KODIERT ?+++
N: Eventuell Pinyin-Text der ersten Strophe vorhanden!
R: Xiaodiao. Suku]
M: 2/4
L: 1/16
K: Bb
B2c2f2d2 | c8 | f4d2c2 | B2c2B2G2 | F8 |
B4c2c2 | f4d2c2 | B2c2B2G2 | F8 |
B2BBB2F2 | G2A2G2F2 | F2GGF2D2 | C8

@@@ Tune index: 6018
